!!!OTL: Ech ko'm de Muorgen do uowen durch' t Duorf, S. 29
!!!id: S0069
**kern
*clefG2
*k[b-]
*F:
{4c
=1
4c
4f
=2
4f
8f
8g
=3
4e
8d
8e
=4
4g}
=5
{4c
=6
4c
4g
=7
4g
4g
=8
8g
8g
8f
8g
=9
4a}
=10
{4f
=11
4f
8a
8b-
=12
4cc
8cc
8cc
=13
4b-
4a
=14
4g}
=15
{8a
8b-
=16
4cc
4a
=17
4a
8cc
8b-
=18
4a
4g
=19
4f}
=20
{4c
=21
4f
4a
=22
4cc
8ff
8ff
=23
4dd
4dd
=24
4cc}
=25
{4cc
=26
4b-
4b-
=27
4a
8cc
8b-
=28
4a
4g
=29
4f}
=30
{4c
=31
4f
8a
8f
=32
4cc
8b-
8cc
=33
4dd
8ee
8dd
=34
4cc}
=35
{4cc
=36
4b-
8cc
8b-
=37
4a
4a
=38
8g
8f
4g
=39
4f}
==
*-
!!!minrhy: 8
!!!meters: 2/4 ]  ZZ[8
!!!cut: Ech ko'm de Muorgen do uowen durch' t Duorf, S. 29
!!!reg: Luxemburg
!!!trd: Die Bauernhochzeit in fr&uuml;heren Zeiten
!!!rhy1: X_  X_X_  X_XX  X_XX  X_
!!!rhy2: X_  X_X_  X_X_  XXXX  X_
!!!key: S0069  08  F 2/4 ]  ZZ[8
!!!mod: HEPTATONIK IONISCH]  AMBITUS[11
!!!kad: 23215151
!!!akz: -51-72_-5223_1542_5331_1565_4331_1565_4321_
!!!fot: 'a__b__c__d__e__f__ew_g__
!!!for: 'a__b__c__d__dv_dv_e__f__
!!!fok: '~a_/__^a_^d_^a_\__^a_\__
!! PHRAS[AUFTAKTIG]
!!!fkt: Brautlied
!! SPEDENER, G:
!! PR[52] 2K[0] 2G[0] 3K[4] 3G[0] 4A[16] 4Ü[0] 5A[0] 6K[0] 6G[0]
!! 7K[0] 7G[0] 8A[0] MEHR[0] SI[20] ABS[25] SR[0] SP[20]
!! ST[12] 2k[0] 2g[4] 3k[4] 3g[0] 4d[20] 4ü[0] 5d[0] 6k[0] 6g[0]
!! 7k[0] 7g[0] 8d[0] mehr[0] si[28] dm[-8] sr[4] sp[24]
!! 1F[67] 2F[20] 3F[13] 4F[0] LF[0] 2P[0] 3P[0] 4P[0] TRI[0] DF[3] AB[30]
!! TF[0] U3K[0] U3[0] U4[0] U4Ü[0] U5[0] U6K[0] U6[0] U7K[0] U7[0]
!! N1[4] N2K[0] N2[4] N3K[0] N3[4] N4[0] N4Ü[0] N5[73] N6K[0] N6[0]
!!!n7k: 0] N7[0] O1[15] O2K[0] O2[0] O3K[0] O3[0] HÖ[0
!!!RNB: symbol: &uuml;  = u umlaut (UTF-8: Ã¼)
